svg/l/JM.svg

<svg width="32" height="24" viewBox="0 0 32 24" fill="none" xmlns="http://www.w3.org/2000/svg">
<g clip-path="url(#clip0_270_67408)">
<rect width="32" height="24" fill="white"/>
<path fill-rule="evenodd" clip-rule="evenodd" d="M0 0H32V24H0V0Z" fill="#009933"/>
<path d="M-0.140613 -1.04113L-2.35 -2.86484V0V24V26.8648L-0.140613 25.0411L14.3972 13.0411L15.6585 12L14.3972 10.9589L-0.140613 -1.04113Z" fill="#272727" stroke="#FECA00" stroke-width="2.7"/>
<path d="M32.1641 -1.0601L34.35 -2.78365V0V24V26.7837L32.1641 25.0601L16.9453 13.0601L15.6008 12L16.9453 10.9399L32.1641 -1.0601Z" fill="#272727" stroke="#FECA00" stroke-width="2.7"/>
</g>
<defs>
<clipPath id="clip0_270_67408">
<rect width="32" height="24" fill="white"/>
</clipPath>
</defs>
</svg>

<svg width="32" height="24" fill="none" xmlns="http://www.w3.org/2000/svg">
  <mask id="a" maskUnits="userSpaceOnUse" x="0" y="0" width="32" height="24">
    <path fill="#fff" d="M0 0h32v24H0z"/>
  </mask>
  <g mask="url(#a)">
    <path fill-rule="evenodd" clip-rule="evenodd" d="M0 0h32v24H0V0z" fill="#093"/>
    <path d="M-.14-1.041l-2.21-1.824v29.73l2.21-1.824 14.537-12L15.658 12l-1.26-1.041-14.539-12z" fill="#272727" stroke="#FECA00" stroke-width="2.7"/>
    <path d="M32.164-1.06l2.186-1.724v29.568l-2.186-1.724-15.219-12L15.601 12l1.344-1.06 15.22-12z" fill="#272727" stroke="#FECA00" stroke-width="2.7"/>
  </g>
</svg>
